X: 1
T: Karen's Kitchen    [Fm]
C: David Kaynor
S: Audrey Knuth on Facebook 2016-12-11
L: 1/8
M: C|
K: Fm
C2 |\
"Fm"F2F2 "Eb"F2ED | "C7"C2C2 C2AB | "Fm"c2c2 "Eb"B2AB | "C7"c6 C2 |\
"Fm"F2F2 "Eb"F2ED | "C7"C2C2 C2cB | "Fm"A2GA "C7"G2=E2 | "Fm"F6 :|
|: c2 |\
"Fm"f2f2 f2e=d | "Eb"e2e2 e2dc | "Db"d2d2 d2cB | "C7"c6 z2 |\
"Bbm"B3A "C7"G2G2 | "Fm"ABAG F2cB | "Fm"A2GF "C7"G=E | "Fm"F6 :|

%%sep 1 1 500

